X: 11
P: Hamborg Sekstur
R: polka
O: Randersegnen
B: 358 Danske Folkedansemelodier v.I #255
Z: 1997 by John Chambers <jc@trillian.mit.edu>
M: 2/4
L: 1/16
%Q: 1/4=104
K: D
A2 \
|: "D"d2f2 a3b | a2f2d2 f2 |1,3 "A7"gfef gfef | gfed c2A2 \
                          :|2,4 "A7"gfed cABc | "D"d2d2d4 :| [K:^g]
K: A
|: "A"e2c'a e2ae | c2ec A2c2 |1,3 "E7"d2d2 dcB2 | "A"c2c2 cBA2 \
                            :|2,4 "E7"dcBc defg | "A"a2a2a4 :| [K:=g]
K: D
|: "D"f2A2 d2A2 | FAdf a3f |1,3 "A7"g2A2 e2A2 | (ba^ga) f2 A2 \
                          :|2,4 "A7"gfef gbac | "D"d2d2d4 :|
